!!!OTL: Die Königskinder (16a)
!!!id: T0127
**kern
*clefG2
*k[]
*G:
{8d
=1
8b
8b
8a
4g
8d
=2
4e
8d
4d}
=3
{8d
=4
8a
8a
8a
8a
8d
8a
=5
4.b}
4r
=6
{8d
=7
8b
8b
8b
8dd
8dd
8dd
=8
4cc
8e
4e}
=9
{8e
=10
8d
8d
8cc
8b
8b
8a
=11
4.b}
4r
=12
{8d
=13
8b
8b
8b
8dd
8dd
8dd
=14
4cc
8e
4e}
=15
{8e
=16
8d
8d
8cc
8b
8b
8a
=17
4.g}
4r
==
*-
!!!minrhy: 8
!!!meters: 6/8 ]  ZZ[6
!!!cut1: Die Königskinder (16a)
!!!cut2: Melodie II, S. 71
!!!reg: Luxemburg
!!!trd: Singendes Volk, Esch-Alzette 1937 posth.
!!!rhy1: X  XXXX_X  X_XX_
!!!rhy2: X  XXXXXX  X_.0_
!!!key: T0127  08  G 6/8 ]  ZZ[6
!!!mod: SECHSTONSKALA DUR ?]  AMBITUS[8
!!!kad: -53-63-61
!!!akz: 31-6-5_223_354-6_-533_354-6_-531_
!!!fot: 'a__b__c__d__c__dw_
!!!for: 'a__b__bw_b__bw_b__
!!!fok: '^__/__^a_/__^a_^a_
!! PHRAS[AUFTAKTIG]
!!!fkt: Liebeslieder
!!!bem1: Junglinster, fff Susanna Minden (gelernt von Katarina Bofferding-Nilles,
!!!bem2: 932
!! THILL, Mathias:
!! PR[42] 2K[0] 2G[7] 3K[7] 3G[0] 4A[2] 4Ü[0] 5A[0] 6K[0] 6G[2]
!! 7K[4] 7G[0] 8A[0] MEHR[0] SI[22] ABS[45] SR[7] SP[16]
!! ST[12] 2k[7] 2g[22] 3k[0] 3g[0] 4d[2] 4ü[0] 5d[0] 6k[4] 6g[0]
!! 7k[0] 7g[0] 8d[0] mehr[0] si[36] dm[-14] sr[29] sp[7]
!! 1F[8] 2F[48] 3F[34] 4F[0] LF[0] 2P[4] 3P[6] 4P[0] TRI[0] DF[5] AB[50]
!! TF[0] U3K[0] U3[0] U4[0] U4Ü[0] U5[11] U6K[0] U6[15] U7K[0] U7[4]
!! N1[7] N2K[0] N2[17] N3K[0] N3[28] N4[9] N4Ü[0] N5[9] N6K[0] N6[0]
!!!n7k: 0] N7[0] O1[0] O2K[0] O2[0] O3K[0] O3[0] HÖ[0
